contributed-vectors/ajio.svg

<?xml version="1.0" encoding="UTF-8" standalone="no"?>
<svg
   xmlns:dc="http://purl.org/dc/elements/1.1/"
   xmlns:cc="http://creativecommons.org/ns#"
   xmlns:rdf="http://www.w3.org/1999/02/22-rdf-syntax-ns#"
   xmlns:svg="http://www.w3.org/2000/svg"
   xmlns="http://www.w3.org/2000/svg"
   xmlns:sodipodi="http://sodipodi.sourceforge.net/DTD/sodipodi-0.dtd"
   xmlns:inkscape="http://www.inkscape.org/namespaces/inkscape"
   sodipodi:docname="ajio.svg"
   inkscape:version="1.0.1 (3bc2e813f5, 2020-09-07)"
   version="1.1"
   id="svg2"
   viewBox="0 0 192 192"
   height="192"
   width="192"
   inkscape:export-filename="/home/jphilippe/inkscape/icônes/delta-github/png/entrernom.png"
   inkscape:export-xdpi="96"
   inkscape:export-ydpi="96">
  <sodipodi:namedview
     inkscape:document-rotation="0"
     inkscape:window-maximized="1"
     inkscape:window-y="30"
     inkscape:window-x="1920"
     inkscape:window-height="1022"
     inkscape:window-width="1680"
     units="px"
     showgrid="false"
     inkscape:current-layer="layer1"
     inkscape:document-units="px"
     inkscape:cy="485.92788"
     inkscape:cx="-278.90688"
     inkscape:zoom="0.35355339"
     inkscape:pageshadow="2"
     inkscape:pageopacity="0.0"
     borderopacity="1.0"
     bordercolor="#666666"
     pagecolor="#ffffff"
     id="base"
     inkscape:snap-bbox="false"
     inkscape:object-paths="true"
     inkscape:snap-nodes="true"
     showguides="true"
     inkscape:guide-bbox="true"
     inkscape:snap-object-midpoints="true"
     inkscape:snap-center="true"
     inkscape:snap-global="false"
     inkscape:snap-intersection-paths="true"
     inkscape:snap-smooth-nodes="true"
     inkscape:snap-midpoints="true" />
  <defs
     id="defs4" />
  <metadata
     id="metadata7">
    <rdf:RDF>
      <cc:Work
         rdf:about="">
        <dc:format>image/svg+xml</dc:format>
        <dc:type
           rdf:resource="http://purl.org/dc/dcmitype/StillImage" />
        <dc:title></dc:title>
      </cc:Work>
    </rdf:RDF>
  </metadata>
  <g
     transform="translate(0,-860.36216)"
     id="layer1"
     inkscape:groupmode="layer"
     inkscape:label="Calque 1">
    <circle
       style="fill:#54688c;fill-opacity:1;fill-rule:evenodd;stroke:none;stroke-opacity:1"
       cx="96"
       cy="956.36218"
       r="88"
       id="circle921" />
    <path
       id="path934"
       style="font-weight:bold;font-size:234.667px;line-height:1.25;font-family:Now;-inkscape-font-specification:'Now Bold';letter-spacing:0px;word-spacing:0px;opacity:1;stroke-width:5.86665;fill:#ffffff;fill-opacity:1"
       d="M 95.814453 8 A 88 88 0 0 0 73.212891 11.001953 L 24.263672 146.96875 A 88 88 0 0 0 55.523438 174.13672 L 63.146484 150.85352 L 128.85352 150.85352 L 136.47852 174.13867 A 88 88 0 0 0 167.73633 146.9707 L 118.78711 11.001953 A 88 88 0 0 0 96 8 L 95.814453 8 z M 96 48.773438 L 118.58594 118.58594 L 73.414062 118.58594 L 96 48.773438 z "
       transform="translate(0,860.36216)" />
  </g>
  <style
     type="text/css"
     id="style853">
	.st0{fill:#FFFFFF;}
</style>
</svg>

<svg xmlns="http://www.w3.org/2000/svg" id="svg2" width="192" height="192" version="1.1"><g id="layer1" transform="translate(0 -860.362)"><circle id="circle921" cx="96" cy="956.362" r="88" style="fill:#54688c;fill-opacity:1;fill-rule:evenodd;stroke:none;stroke-opacity:1"/><path id="path934" d="M95.814 8a88 88 0 0 0-22.601 3.002l-48.95 135.967a88 88 0 0 0 31.26 27.168l7.623-23.283h65.708l7.625 23.285a88 88 0 0 0 31.257-27.168L118.787 11.002A88 88 0 0 0 96 8h-.186zM96 48.773l22.586 69.813H73.414L96 48.773z" style="font-weight:700;font-size:234.667px;line-height:1.25;font-family:Now;-inkscape-font-specification:&quot;Now Bold&quot;;letter-spacing:0;word-spacing:0;opacity:1;stroke-width:5.86665;fill:#fff;fill-opacity:1" transform="translate(0 860.362)"/></g><style id="style853" type="text/css">.st0{fill:#fff}</style></svg>
